X:53208
F:http://www.vwml.org/record/HAM/5/32/8
%%VWML:HAM-5-32-8-0
T:Tarry Trousers
T:boy with the red striped trousers, The
T:boy with the Tarry blue trousers, The
S:Mrs Marina Russell, Upwey coll. HED Hammond
O:England
A:Dorset
N:Transcribed from HAM-02-228.gif
F:HAM-05-32-08.abc
Z:EFDSS;PJHeadford
M:C
L:1/8
Q:2/4=60
K:C
D2|D2 A> "^+"B A2G F|G2F F E2D2|G3A GF DE|F FG2 A4|
D3C D D c2c c|B2G G ABc2|F3G A2EF"^*"y|GFD2 D4||
W:Transcribed from HAM-02-228.gif
W:[This tune has a subtitle, with alternate adjectival phrases:]
W:... The boy with the red striped trousers
W:or The boy with the Tarry blue trousers
W:[to the left of the subtitle:] Dorian? 503 [and to the right:] Mrs Russell of Upwey W:[below tune, feintly:] Words D VI. p53
W:At *, a feint A crotchet in ellipses, and at +, a flat sign seem to have been added later.
W:
